src/main/resources/icons/SpringApiIcons/icons/listener.svg

<svg xmlns="http://www.w3.org/2000/svg" width="16" height="16" viewBox="0 0 16 16">
  <g fill="none" fill-rule="evenodd">
    <path fill="#62B543" fill-opacity=".7" d="M4,5.75828571 L11.3031429,13.0614286 C9.30314286,14.6728571 6.73742857,14.0985714 4.82028571,12.18 C4.51066897,11.8706138 4.23606161,11.5443368 4,11.2062723 L4,5.75828571 Z M12,12.2404407 L4.69671429,4.93857143 C6.69671429,3.32571429 9.26242857,3.90142857 11.181,5.82 C11.4900369,6.12903693 11.7642177,6.45492656 12,6.79258276 L12,12.2404407 Z"/>
    <polygon fill="#9AA7B0" points="3 11.814 1 11.814 1 6 3 6"/>
    <polygon fill="#9AA7B0" points="15 11.814 13 11.814 13 6 15 6"/>
    <path fill="#9AA7B0" d="M3,8.998 C3.002,5.143 4.146,2 7.997,2 C11.854,2 12.998,5.143 13,8.998 L14,8.998 C13.998,4.592 13,1 7.997,1 C3.595,1 2.002,4.592 2,8.998 L3,8.998 Z"/>
  </g>
</svg>

<svg xmlns="http://www.w3.org/2000/svg" width="16" height="16" viewBox="0 0 16 16"><rect id="frame" width="16" height="16" fill="none"/><g fill="none" fill-rule="evenodd"><path fill="#62B543" fill-opacity=".7" d="M4 5.758l7.303 7.303c-2 1.612-4.566 1.038-6.483-.881a7.243 7.243 0 0 1-.82-.974V5.758zm8 6.482L4.697 4.94c2-1.613 4.565-1.038 6.484.881.309.309.583.635.819.973v5.447z"/><path fill="#9AA7B0" d="M3 11.814H1V6h2z"/><path fill="#9AA7B0" d="M15 11.814h-2V6h2z"/><path fill="#9AA7B0" d="M3 8.998C3.002 5.143 4.146 2 7.997 2 11.854 2 12.998 5.143 13 8.998h1C13.998 4.592 13 1 7.997 1 3.595 1 2.002 4.592 2 8.998h1z"/></g></svg>
